src/asset/img/icon/item_category/wall.svg

<svg xmlns:xlink="http://www.w3.org/1999/xlink" height="21.95" width="15.5" xmlns="http://www.w3.org/2000/svg"><use height="87.75" transform="matrix(.2501 0 0 .2503 -.013 -.025)" width="62" xlink:href="#a"/><defs><use height="87.75" width="62" xlink:href="#b" id="a"/><g id="b" fill-rule="evenodd"><path d="M45.85 31.1v53.95l-.35-.15V31.6l.35-.5m.65 54.3 1.15-1v1.55l-1.15-.55m-7.25-3.8 1.65 1-1.65-.85v-.15" fill="#627d98" transform="translate(5.45 -.7)"/><path d="m-.6 9.65 1 .45-1 1.85v-2.3" fill="#748faa" transform="translate(5.45 -.7)"/><path d="M53 25.7 4.75 3.4-.6 9.65v52.2l2.65 1.65v.1L6.7 67v-.55l2.7 1.65v-1.25l9.4 4.7 4 2.8v-.45l5.7 3.45v-.95l7 3.5 3.75 2.5v-.65l1.65.85 4.6 2.8v-.5l.35.15v.9l.65-.55 1.15.55V84.4L53 79.7v-54m3.55 2v50.95l-9.8 9.8-50.4-24.3-1.8-53.45L5.25.7 11 1.75l43.8 21.3 1.75 4.65" fill="#3f5a75" fill-opacity=".922" transform="translate(5.45 -.7)"/><path d="m.4 10.1.4-.8 45.05 21.8-.35.5-.9 1.25-5.35-2.45-4.85-2.25-5.9-2.75-5.7-2.6-4.65-2.15L9.4 16.6l-2.7-1.25-4.65-2.15-2.65-1.25 1-1.85" fill="#3f5a75" fill-opacity=".082" transform="translate(5.45 -.7)"/><path d="M45.85 31.1 53 25.7v54l-5.35 4.7-1.15 1-.65.55V31.1" fill="#3f5a75" fill-opacity=".714" transform="translate(5.45 -.7)"/><path d="m53 25.7-7.15 5.4L.8 9.3l-.4.8-1-.45L4.75 3.4 53 25.7" fill="#3f5a75" fill-opacity=".224" transform="translate(5.45 -.7)"/><path d="m9.4 16.6 8.75 4.05V71.1l.65.45-9.4-4.7V16.6m19.1 8.8 5.9 2.75v51l1.1.75-7-3.5v-51" fill="#3f5a75" fill-opacity=".4" transform="translate(5.45 -.7)"/><path d="m39.25 30.4 5.35 2.45.9-1.25v53.8l-4.6-2.8-1.65-1V30.4M6.7 15.35l2.7 1.25v51.5l-2.7-1.65v-51.1m16.1 7.45 5.7 2.6v51.95l-5.7-3.45V22.8M2.05 63.5-.6 61.85v-49.9l2.65 1.25v50.3" fill="#3f5a75" fill-opacity=".341" transform="translate(5.45 -.7)"/><path d="m2.05 13.2 4.65 2.15V67l-4.65-3.4V13.2m16.1 7.45 4.65 2.15v51.55l-4-2.8-.65-.45V20.65m16.25 7.5 4.85 2.25v52l-3.75-2.5-1.1-.75v-51" fill="#3f5a75" fill-opacity=".141" transform="translate(5.45 -.7)"/></g></defs></svg>

<?xml version="1.0" encoding="UTF-8" standalone="no"?>
<svg xmlns:xlink="http://www.w3.org/1999/xlink" height="21.95px" width="15.5px" xmlns="http://www.w3.org/2000/svg">
  <g transform="matrix(1.0, 0.0, 0.0, 1.0, -4.75, -1.55)">
    <use height="87.75" transform="matrix(0.2501, 0.0, 0.0, 0.2503, 4.7371, 1.5252)" width="62.0" xlink:href="#sprite0"/>
  </g>
  <defs>
    <g id="sprite0" transform="matrix(1.0, 0.0, 0.0, 1.0, 5.45, -0.7)">
      <use height="87.75" transform="matrix(1.0, 0.0, 0.0, 1.0, -5.45, 0.7)" width="62.0" xlink:href="#shape0"/>
    </g>
    <g id="shape0" transform="matrix(1.0, 0.0, 0.0, 1.0, 5.45, -0.7)">
      <path d="M45.85 31.1 L45.85 85.05 45.5 84.9 45.5 31.6 45.85 31.1 M46.5 85.4 L47.65 84.4 47.65 85.95 46.5 85.4 M39.25 81.6 L40.9 82.6 39.25 81.75 39.25 81.6" fill="#627d98" fill-rule="evenodd" stroke="none"/>
      <path d="M-0.6 9.65 L0.4 10.1 -0.6 11.95 -0.6 9.65" fill="#748faa" fill-rule="evenodd" stroke="none"/>
      <path d="M53.0 25.7 L4.75 3.4 -0.6 9.65 -0.6 11.95 -0.6 61.85 2.05 63.5 2.05 63.6 6.7 67.0 6.7 66.45 9.4 68.1 9.4 66.85 18.8 71.55 22.8 74.35 22.8 73.9 28.5 77.35 28.5 76.4 35.5 79.9 39.25 82.4 39.25 81.75 40.9 82.6 45.5 85.4 45.5 84.9 45.85 85.05 45.85 85.95 46.5 85.4 47.65 85.95 47.65 84.4 53.0 79.7 53.0 25.7 M56.55 27.7 L56.55 78.65 46.75 88.45 -3.65 64.15 -5.45 10.7 5.25 0.7 11.0 1.75 54.8 23.05 56.55 27.7" fill="#3f5a75" fill-opacity="0.92156863" fill-rule="evenodd" stroke="none"/>
      <path d="M0.4 10.1 L0.8 9.3 45.85 31.1 45.5 31.6 44.6 32.85 39.25 30.4 34.4 28.15 28.5 25.4 22.8 22.8 18.15 20.65 9.4 16.6 6.7 15.35 2.05 13.2 -0.6 11.95 0.4 10.1" fill="#3f5a75" fill-opacity="0.08235294" fill-rule="evenodd" stroke="none"/>
      <path d="M45.85 31.1 L53.0 25.7 53.0 79.7 47.65 84.4 46.5 85.4 45.85 85.95 45.85 85.05 45.85 31.1" fill="#3f5a75" fill-opacity="0.7137255" fill-rule="evenodd" stroke="none"/>
      <path d="M53.0 25.7 L45.85 31.1 0.8 9.3 0.4 10.1 -0.6 9.65 4.75 3.4 53.0 25.7" fill="#3f5a75" fill-opacity="0.22352941" fill-rule="evenodd" stroke="none"/>
      <path d="M9.4 16.6 L18.15 20.65 18.15 71.1 18.8 71.55 9.4 66.85 9.4 16.6 M28.5 25.4 L34.4 28.15 34.4 79.15 35.5 79.9 28.5 76.4 28.5 25.4" fill="#3f5a75" fill-opacity="0.4" fill-rule="evenodd" stroke="none"/>
      <path d="M39.25 30.4 L44.6 32.85 45.5 31.6 45.5 84.9 45.5 85.4 40.9 82.6 39.25 81.6 39.25 30.4 M6.7 15.35 L9.4 16.6 9.4 66.85 9.4 68.1 6.7 66.45 6.7 15.35 M22.8 22.8 L28.5 25.4 28.5 76.4 28.5 77.35 22.8 73.9 22.8 22.8 M2.05 63.5 L-0.6 61.85 -0.6 11.95 2.05 13.2 2.05 63.5" fill="#3f5a75" fill-opacity="0.34117648" fill-rule="evenodd" stroke="none"/>
      <path d="M2.05 13.2 L6.7 15.35 6.7 66.45 6.7 67.0 2.05 63.6 2.05 63.5 2.05 13.2 M18.15 20.65 L22.8 22.8 22.8 73.9 22.8 74.35 18.8 71.55 18.15 71.1 18.15 20.65 M34.4 28.15 L39.25 30.4 39.25 81.6 39.25 81.75 39.25 82.4 35.5 79.9 34.4 79.15 34.4 28.15" fill="#3f5a75" fill-opacity="0.14117648" fill-rule="evenodd" stroke="none"/>
    </g>
  </defs>
</svg>
